rospo-icon-theme-classic-common/32x32/apps/fiji.svg

<svg height="32" width="32" xmlns="http://www.w3.org/2000/svg"><rect height="28" opacity=".2" rx="1.4" transform="matrix(0 -1 -1 0 0 0)" width="28" x="-31" y="-30"/><rect fill="#4f4f4f" height="28" rx="1.4" transform="matrix(0 -1 -1 0 0 0)" width="28" x="-30" y="-30"/><path d="m5 7v3 17h4v-16h18v-4h-19zm6 6v8h4v-8zm6 0v10h-6v4h10v-4-10zm6 0v14h4v-14z" opacity=".2"/><path d="m5 6v3 17h4v-16h18v-4h-19zm6 6v8h4v-8zm6 0v10h-6v4h10v-4-10zm6 0v14h4v-14z" fill="#3693ee"/><path d="m5 6v1h3 19v-1h-19zm6 6v1h4v-1zm6 0v1h4v-1zm6 0v1h4v-1zm-12 10v1h6v-1z" fill="#fff" opacity=".2"/><path d="m3.4003906 2c-.7756 0-1.4003906.6247906-1.4003906 1.4003906v1c0-.7756.6247906-1.4003906 1.4003906-1.4003906h25.1992184c.7756 0 1.400391.6247906 1.400391 1.4003906v-1c0-.7756-.624791-1.4003906-1.400391-1.4003906z" fill="#fff" opacity=".1"/></svg>

<svg xmlns="http://www.w3.org/2000/svg" width="32" height="32" version="1">
 <rect width="28" height="28" x="-31" y="-30" rx="1.4" ry="1.4" transform="matrix(0,-1,-1,0,0,0)" style="opacity:0.2"/>
 <rect style="fill:#4f4f4f" width="28" height="28" x="-30" y="-30" rx="1.4" ry="1.4" transform="matrix(0,-1,-1,0,0,0)"/>
 <path d="m 5,7 0,3 0,17 4,0 0,-16 18,0 0,-4 -19,0 z m 6,6 0,8 4,0 0,-8 z m 6,0 0,10 -6,0 0,4 10,0 0,-4 0,-10 z m 6,0 0,14 4,0 0,-14 z" style="opacity:0.2"/>
 <path style="fill:#3693ee" d="M 5,6 5,9 5,26 9,26 9,10 27,10 27,6 8,6 Z m 6,6 0,8 4,0 0,-8 z m 6,0 0,10 -6,0 0,4 10,0 0,-4 0,-10 z m 6,0 0,14 4,0 0,-14 z"/>
 <path style="opacity:0.2;fill:#ffffff" d="M 5 6 L 5 7 L 8 7 L 27 7 L 27 6 L 8 6 L 5 6 z M 11 12 L 11 13 L 15 13 L 15 12 L 11 12 z M 17 12 L 17 13 L 21 13 L 21 12 L 17 12 z M 23 12 L 23 13 L 27 13 L 27 12 L 23 12 z M 11 22 L 11 23 L 17 23 L 17 22 L 11 22 z"/>
 <path style="fill:#ffffff;opacity:0.1" d="M 3.4003906 2 C 2.6247906 2 2 2.6247906 2 3.4003906 L 2 4.4003906 C 2 3.6247906 2.6247906 3 3.4003906 3 L 28.599609 3 C 29.375209 3 30 3.6247906 30 4.4003906 L 30 3.4003906 C 30 2.6247906 29.375209 2 28.599609 2 L 3.4003906 2 z"/>
</svg>
